svgs/solid/horse-saddle.svg

<svg xmlns="http://www.w3.org/2000/svg" viewBox="0 0 576 512"><!-- Font Awesome Pro 6.0.0-alpha2 by @fontawesome - https://fontawesome.com License - https://fontawesome.com/license (Commercial License) --><path d="M128 160V134.125C112.625 139.625 98.875 148.875 88 161.125V160C39.375 160 0 199.375 0 248V304C0 312.875 7.125 320 16 320H32C40.875 320 48 312.875 48 304V248C48 234.75 54.875 223.625 64.75 216.25C64.5 218.875 64 221.375 64 224C64 250.5 75.125 275.875 94.5 293.875L68.75 362.5C64.25 374.625 63.5 387.875 66.625 400.5L91.5 499.875C93.25 506.5 100.125 512 107 512H173C177.875 512 182.625 509.75 185.625 505.875C188.625 502 189.75 496.875 188.5 492.125L162.25 386.875L186 323.25L208 326.875V254.375C161.875 246.625 128 206.75 128 160ZM288 160V128H160V160C160 195.375 188.625 224 224 224S288 195.375 288 160ZM575.875 76.625C575.875 68.5 572.875 60.75 567.375 54.75C563.5 50.75 558.75 45.75 553.625 40.25C564.75 33.5 573.125 22.75 575.875 9.625C576.25 7.25 575.625 4.875 574.125 3C572.625 1.125 570.375 0 567.875 0H447.875C377.625 0 320.5 56.75 320 127V160C320 206.875 286.125 246.75 240 254.5V332.25L320 345.625V496C320 504.875 327.125 512 336 512H400C408.875 512 416 504.875 416 496V318.25C436.5 297.375 448 269.25 448 240C448 239.75 448 239.625 447.875 239.375V136.875L463.875 144L482.75 181.75C490.25 196.625 507.875 203.25 523.25 197L555.875 184C567 179.625 576 166.25 576 154.375L575.875 76.625ZM511.875 96C503.125 96 495.875 88.875 495.875 80S503.125 64 511.875 64C520.75 64 527.875 71.125 527.875 80S520.75 96 511.875 96Z"/></svg>

<svg xmlns="http://www.w3.org/2000/svg" viewBox="0 0 576 512"><!-- Font Awesome Pro 5.15.1 by @fontawesome - https://fontawesome.com License - https://fontawesome.com/license (Commercial License) --><path d="M128 160v-25.83a96.74 96.74 0 0 0-40 26.94V160a88.09 88.09 0 0 0-88 88v56a16 16 0 0 0 16 16h16a16 16 0 0 0 16-16v-56c0-13.22 6.87-24.39 16.78-31.69-.22 2.6-.78 5.07-.78 7.69a95.47 95.47 0 0 0 30.53 69.88l-25.72 68.6a64.13 64.13 0 0 0-2.15 38l24.84 99.4c1.69 6.68 8.62 12.12 15.5 12.12h66a16 16 0 0 0 15.53-19.88l-26.34-105.26L186 323.27l22 3.66v-72.54A95.83 95.83 0 0 1 128 160zm160 0v-32H160v32a64 64 0 0 0 128 0zm287.9-83.41a31.69 31.69 0 0 0-8.56-21.79c-3.78-4-8.59-9.11-13.69-14.5 11.07-6.85 19.5-17.49 22.19-30.66A8.11 8.11 0 0 0 567.9 0h-120A127.94 127.94 0 0 0 320 127.05v33a95.83 95.83 0 0 1-80 94.39v77.87l80 13.33V496a16 16 0 0 0 16 16h64a16 16 0 0 0 16-16V318.22A111.5 111.5 0 0 0 448 240a3.55 3.55 0 0 0-.1-.64V136.89l16 7.11 18.91 37.7a32 32 0 0 0 40.5 15.36l32.56-13C567 179.61 576 166.3 576 154.34zM511.9 96a16 16 0 1 1 16-16 16 16 0 0 1-16 16z"/></svg>
